X: 74
M:C|
L:1/8
K:D
(uAG)|F2F2 FAdF|GFED CEAG|FAdf gfed|((3efe) ((3cdB) ((3ABA) ((3FGE)|
|:uf2|efgf edcA|defg a2a2|\
((3gag) e2 ((3faf) d2|((3efe) ((3cdB) ((3ABG) ((3FGE)|


